X:175
T:Smoke In The Sky
R:jig
C:Bruce Osborne - Aug. 2002
Z:abc by bosborne@kos.net
M:6/8
L:1/8
K:Bb
d/c/|BdB FBF|DFD B,DB,|CB,C CDE|GFE D2 d/c/|\
BdB FBF|DFD B,DB,|CB,C CDE|DCA, B,2:|
|:F|BdB BFD|EFG F2 B/c/|dcd fdB|dcB c2 F|\
BdB BFD|EFG F2 B/c/|dcd fdB|ABc B2:|
